X:450
T:Sweet Maid of Mull, The 
C:Joe Buchanan's Scottish Tome - Page 072.0
I:072 0
C:A C Beaton
R:Pipe March
Z:Carl Allison
L:1/8
M:6/8
K:C
e | "Am"A>Bc e2 "Em"a | "Dm"a>gf "Am"e3 | "Dm"f<af "Am"f>ec | "B7"c>BA B2 "E7"e |
"Am"A>Bc e2 "Em"a | "Dm"a>gf "Am"e2 a | "Am"A>ce "F#m"f>ec | "E7"B3 "Am"A2 :|]
g | "Am"a>ea a2 "Em"e | "Dm"f<af "Am"e2 a | "Am"A>cf "F#m"e>cA | "B7"c<ec B2 "E7"g |
"Am"a>ea a2 "Em"e | "Dm"f<af "Am"e2 a | "Am"A>ce "F#m"f>ec | "E7"B3 "Am"A2 g |
"Am"a>ea a2 "Em"e | "Dm"f<af "Am"e2 a | "Am"A>cf "F#m"e>cA | "B7"c<ec A2 "E7"e |
"Am"A>Bc e2 "Em"a | "Dm"a>gf "Am"e2 a | "Am"A>ce "F#m"f>ec | "E7"B3 "Am"A2 |]
e | "Am"A>Bc c<eA | "Dm"d>ef "Am"e2 a | "Am"e>fe "F#m"c>BA | "B7"c<ec B2 "E7"e |
"Am"A>Bc c<eA | "Dm"d>ef "Am"e2 a | "Am"A>ce "F#m"f>ec | "E7"B3 "Am"A2 :|]
g | "Am"a>ea "Em"a>gf | "Dm"f<af "Am"e2 a | "Am"A>cf "F#m"e>cA | "B7"c<ec B2 "E7"g |
"Am"a>ea "Em"a>gf | "Dm"f<af "Am"e2 a | "Am"A>ce "F#m"f>ec | "E7"B3 "Am"A2 g |
"Am"a>ea "Em"a>gf | "Dm"f<af "Am"e2 a | "Am"A>cf "F#m"e>cA | "B7"c<ec B2 "E7"e |
"Am"A>Bc e2 "Em"a | "Dm"a>gf "Am"e2 a | "Am"A>ce "F#m"f>ec | "E7"B3 "Am"A2 |]

